X: 4974
T: Brenda Stubbert's
R: reel
M: 4/4
K: Adorian
|:"Am"A2BA GABG|"Am"A2Bd eddB|"G"G2BA BGGB|"G"c2BA BGEG|
"Am"A2BA GABG|"Am"A2Bd edde|"G"gedB GABd|"G"e2dB "Am"eAAG:|
|:"Am"A2a2 A2g2|"Am"eage ageg|"G"G2BA BGGB|"G"c2BA BGEG|
[1"Am"A2a2 A2g2|"Am"eage agea|"G"aged GABd|"G"e2dB "Am"eAAG:|
[2"Am"A2BA GABG|"Am"A2Bd edde|"G"gedB GABd|"G"e2dB "Am"eAAG||

